X:1
T: Hinchy's Delight
C:
R:Jig
Q:180
K:G
M:6/8
L:1/16
|:A2|B2A2B2 G2B2G2|A2F2D2 F4G2|A2G2A2 f2e2d2|c2A2G2 F2G2A2|B2A2B2 G2B2G2|A2F2D2 F4G2|A2G2A2 f2e2d2|c2A2F2 G4:|
|:d2|g2f2g2 a2f2d2|g2f2g2 a4d2|g2f2g2 b4g2|a4g2 f2g2a2|g2e2g2 f2e2d2|f2e2d2 c2d2e2|f2e2f2 d2e2d2|c2A2F2 G4:|
|:ef|gfe2g2 f2d2f2|edc2e2 d2B2G2|A2G2A2 f2e2d2|c2A2G2 F2G2A2|gfe2g2 f2d2f2|edc2e2 d2B2G2|A2G2A2 f2e2d2|c2A2F2 G4:|
